material/.icons/material/nfc-tap.svg

<svg xmlns="http://www.w3.org/2000/svg" viewBox="0 0 24 24"><path d="M12 10a2 2 0 012 2 2 2 0 01-2 2 2 2 0 01-2-2 2 2 0 012-2M4 4h7a2 2 0 012 2v3h-2V6H4v5h2V9l3 3-3 3v-2H4a2 2 0 01-2-2V6a2 2 0 012-2m16 16h-7a2 2 0 01-2-2v-3h2v3h7v-5h-2v2l-3-3 3-3v2h2a2 2 0 012 2v5a2 2 0 01-2 2z"/></svg>

<?xml version="1.0" encoding="UTF-8"?><!DOCTYPE svg PUBLIC "-//W3C//DTD SVG 1.1//EN" "http://www.w3.org/Graphics/SVG/1.1/DTD/svg11.dtd"><svg xmlns="http://www.w3.org/2000/svg" xmlns:xlink="http://www.w3.org/1999/xlink" version="1.1" id="mdi-nfc-tap" width="24" height="24" viewBox="0 0 24 24"><path d="M12,10A2,2 0 0,1 14,12A2,2 0 0,1 12,14A2,2 0 0,1 10,12A2,2 0 0,1 12,10M4,4H11A2,2 0 0,1 13,6V9H11V6H4V11H6V9L9,12L6,15V13H4A2,2 0 0,1 2,11V6A2,2 0 0,1 4,4M20,20H13A2,2 0 0,1 11,18V15H13V18H20V13H18V15L15,12L18,9V11H20A2,2 0 0,1 22,13V18A2,2 0 0,1 20,20Z" /></svg>
